src/images_karasa_jaga_svg/cmd/sc_fontworkshapetype.fontwork-open-circle-curve.svg

<svg height="16" viewBox="0 0 16 16" width="16" xmlns="http://www.w3.org/2000/svg" xmlns:xlink="http://www.w3.org/1999/xlink"><linearGradient id="a"><stop offset="0" stop-color="#7c9fcf"/><stop offset=".5" stop-color="#7c9ece"/><stop offset="1" stop-color="#7b9dcf"/></linearGradient><linearGradient id="b"><stop offset="0" stop-color="#fff"/><stop offset=".53340602" stop-color="#fff"/><stop offset=".9375" stop-color="#f1f1f1"/><stop offset=".96875" stop-color="#eaeaea"/><stop offset="1" stop-color="#dfdfdf"/></linearGradient><linearGradient id="c" gradientUnits="userSpaceOnUse" x1="0" x2="128" xlink:href="#a" y1="64" y2="64"/><linearGradient id="d" gradientUnits="userSpaceOnUse" x1="64" x2="64" xlink:href="#b" y1="128" y2="0"/><linearGradient id="e" gradientUnits="userSpaceOnUse" x1="64" x2="64" xlink:href="#b" y1="88" y2="60.090096"/><linearGradient id="f" gradientUnits="userSpaceOnUse" x1="64" x2="64" xlink:href="#a" y1="88" y2="60.090096"/><g transform="scale(.125)"><path d="m64 0c-35.346224 0-64 28.653776-64 64h24c0-22.09139 17.90861-40 40-40s40 17.90861 40 40h24c0-35.346224-28.653776-64-64-64z" fill="url(#c)"/><path d="m64 8c-27.816129.0280592-51.39542 20.469156-55.3691406 48h8.0937496c3.900392-23.075117 23.872968-39.974037 47.275391-40 23.419404.0041 43.41708 16.908155 47.32031 40h8.03516c-3.97297-27.525714-27.544533-47.9651558-55.35547-48z" fill="url(#d)"/><path d="m24 63.957031a8.0442652 8.0442652 0 0 0 -8.042969 8.042969v8a8.0442652 8.0442652 0 0 0 8.042969 8.042969h80a8.0442652 8.0442652 0 0 0 8.04297-8.042969v-8a8.0442652 8.0442652 0 0 0 -8.04297-8.042969z" fill="url(#f)"/><path d="m24 72h80v8h-80z" fill="url(#e)"/></g></svg>

<?xml version="1.0" encoding="UTF-8" standalone="no"?>
<!-- Created with Inkscape (http://www.inkscape.org/) -->

<svg
   xmlns:dc="http://purl.org/dc/elements/1.1/"
   xmlns:cc="http://creativecommons.org/ns#"
   xmlns:rdf="http://www.w3.org/1999/02/22-rdf-syntax-ns#"
   xmlns:svg="http://www.w3.org/2000/svg"
   xmlns="http://www.w3.org/2000/svg"
   xmlns:xlink="http://www.w3.org/1999/xlink"
   xmlns:sodipodi="http://sodipodi.sourceforge.net/DTD/sodipodi-0.dtd"
   xmlns:inkscape="http://www.inkscape.org/namespaces/inkscape"
   version="1.1"
   id="svg2"
   width="128"
   height="128"
   viewBox="0 0 128 128"
   sodipodi:docname="sc_fontworkshapetype.fontwork-open-circle-curve.svg"
   inkscape:export-filename="/home/rizmut/Dokumen/Rizmut/Github/libreoffice-style-karasa-jaga/build/images_karasa_jaga/cmd/sc_fontworkshapetype.fontwork-open-circle-curve.png"
   inkscape:export-xdpi="12"
   inkscape:export-ydpi="12"
   inkscape:version="0.92.3 (unknown)">
  <metadata
     id="metadata8">
    <rdf:RDF>
      <cc:Work
         rdf:about="">
        <dc:format>image/svg+xml</dc:format>
        <dc:type
           rdf:resource="http://purl.org/dc/dcmitype/StillImage" />
        <dc:title></dc:title>
      </cc:Work>
    </rdf:RDF>
  </metadata>
  <defs
     id="defs6">
    <linearGradient
       id="linearGradient7422">
      <stop
         style="stop-color:#7c9fcf;stop-opacity:1"
         offset="0"
         id="stop7424" />
      <stop
         id="stop5348"
         offset="0.5"
         style="stop-color:#7c9ece;stop-opacity:1" />
      <stop
         id="stop7426"
         offset="1"
         style="stop-color:#7b9dcf;stop-opacity:1" />
    </linearGradient>
    <linearGradient
       id="linearGradient3369">
      <stop
         id="stop3372"
         offset="0"
         style="stop-color:#ffffff;stop-opacity:1;" />
      <stop
         style="stop-color:#ffffff;stop-opacity:1;"
         offset="0.53340602"
         id="stop3374" />
      <stop
         style="stop-color:#f1f1f1;stop-opacity:1;"
         offset="0.9375"
         id="stop3376" />
      <stop
         id="stop3378"
         offset="0.96875"
         style="stop-color:#eaeaea;stop-opacity:1;" />
      <stop
         id="stop3384"
         offset="1"
         style="stop-color:#dfdfdf;stop-opacity:1;" />
    </linearGradient>
    <linearGradient
       inkscape:collect="always"
       xlink:href="#linearGradient7422"
       id="linearGradient864"
       x1="0"
       y1="64"
       x2="128"
       y2="64"
       gradientUnits="userSpaceOnUse" />
    <linearGradient
       inkscape:collect="always"
       xlink:href="#linearGradient3369"
       id="linearGradient876"
       x1="64"
       y1="128"
       x2="64"
       y2="0"
       gradientUnits="userSpaceOnUse" />
    <linearGradient
       inkscape:collect="always"
       xlink:href="#linearGradient3369"
       id="linearGradient1588"
       x1="64"
       y1="88"
       x2="64"
       y2="60.090096"
       gradientUnits="userSpaceOnUse" />
    <linearGradient
       inkscape:collect="always"
       xlink:href="#linearGradient7422"
       id="linearGradient1592"
       gradientUnits="userSpaceOnUse"
       x1="64"
       y1="88"
       x2="64"
       y2="60.090096" />
  </defs>
  <sodipodi:namedview
     pagecolor="#ffffff"
     bordercolor="#666666"
     borderopacity="1"
     objecttolerance="10"
     gridtolerance="10"
     guidetolerance="10"
     inkscape:pageopacity="0"
     inkscape:pageshadow="2"
     inkscape:window-width="1366"
     inkscape:window-height="706"
     id="namedview4"
     showgrid="true"
     inkscape:snap-page="true"
     inkscape:snap-global="true"
     inkscape:zoom="1.4142136"
     inkscape:cx="-12.976878"
     inkscape:cy="-31.591093"
     inkscape:window-x="0"
     inkscape:window-y="0"
     inkscape:window-maximized="1"
     inkscape:current-layer="svg2"
     inkscape:snap-smooth-nodes="true">
    <inkscape:grid
       type="xygrid"
       id="grid850"
       spacingx="8"
       spacingy="8"
       empspacing="2" />
  </sodipodi:namedview>
  <g
     id="g936">
    <path
       sodipodi:nodetypes="sccsccs"
       inkscape:connector-curvature="0"
       id="circle856"
       d="M 64,0 C 28.653776,0 0,28.653776 0,64 h 24 c 0,-22.09139 17.90861,-40 40,-40 22.09139,0 40,17.90861 40,40 h 24 C 128,28.653776 99.346224,0 64,0 Z"
       style="opacity:1;fill:url(#linearGradient864);fill-opacity:1;stroke:none;stroke-width:12.80000114;stroke-linecap:round;stroke-linejoin:round;stroke-miterlimit:4;stroke-dasharray:none;stroke-dashoffset:0;stroke-opacity:1" />
    <path
       sodipodi:nodetypes="ccccccc"
       inkscape:connector-curvature="0"
       id="circle854"
       d="M 64,8 C 36.183871,8.0280592 12.60458,28.469156 8.6308594,56 H 16.724609 C 20.625001,32.924883 40.597577,16.025963 64,16 c 23.419404,0.0041 43.41708,16.908155 47.32031,40 h 8.03516 C 115.3825,28.474286 91.810937,8.0348442 64,8 Z"
       style="opacity:1;fill:url(#linearGradient876);fill-opacity:1;stroke:none;stroke-width:11.20000076;stroke-linecap:round;stroke-linejoin:round;stroke-miterlimit:4;stroke-dasharray:none;stroke-dashoffset:0;stroke-opacity:1" />
  </g>
  <path
     sodipodi:type="inkscape:offset"
     inkscape:radius="8.0434608"
     inkscape:original="M 24 72 L 24 80 L 104 80 L 104 72 L 24 72 z "
     style="opacity:1;fill:url(#linearGradient1592);fill-opacity:1;stroke:none;stroke-width:8;stroke-linecap:round;stroke-linejoin:round;stroke-miterlimit:4;stroke-dasharray:none;stroke-dashoffset:0;stroke-opacity:1"
     id="rect1590"
     d="M 24,63.957031 A 8.0442652,8.0442652 0 0 0 15.957031,72 v 8 A 8.0442652,8.0442652 0 0 0 24,88.042969 h 80 A 8.0442652,8.0442652 0 0 0 112.04297,80 V 72 A 8.0442652,8.0442652 0 0 0 104,63.957031 Z" />
  <rect
     style="opacity:1;fill:url(#linearGradient1588);fill-opacity:1;stroke:none;stroke-width:8;stroke-linecap:round;stroke-linejoin:round;stroke-miterlimit:4;stroke-dasharray:none;stroke-dashoffset:0;stroke-opacity:1"
     id="rect1580"
     width="80"
     height="8"
     x="24"
     y="72" />
</svg>
